symbols/web/hardware/materialsymbolsoutlined/hardware_20px.svg

<svg xmlns="http://www.w3.org/2000/svg" height="20" width="20"><path d="M8.271 17.5q-.354 0-.594-.25-.239-.25-.239-.604V6.812H3.333q0-1.791 1.24-3.052Q5.812 2.5 7.583 2.5h4.938v2.458L14.917 2.5h1.75v6.708h-1.75l-2.396-2.479v9.917q0 .354-.24.604-.239.25-.593.25Zm.917-1.75h1.583v-4.875H9.188Zm0-6.625h1.583V4.25H7.583q-.521 0-.979.219-.458.219-.812.593h3.396Zm.791.875Z"/></svg>

<svg xmlns="http://www.w3.org/2000/svg" height="20" width="20"><path d="M8.271 17.5Q7.917 17.5 7.677 17.25Q7.438 17 7.438 16.646V6.812H3.333Q3.333 5.021 4.573 3.76Q5.812 2.5 7.583 2.5H12.521V4.958L14.917 2.5H16.667V9.208H14.917L12.521 6.729V16.646Q12.521 17 12.281 17.25Q12.042 17.5 11.688 17.5ZM9.188 15.75H10.771V10.875H9.979H9.188ZM9.188 9.125H10.771V4.25H7.583Q7.062 4.25 6.604 4.469Q6.146 4.688 5.792 5.062H9.188ZM9.979 10Q9.979 10 9.979 10Q9.979 10 9.979 10Z"/></svg>
